public/icons/cart2-bg-big-m.svg

<svg width="332" height="266" viewBox="0 0 332 266" fill="none" xmlns="http://www.w3.org/2000/svg">
<path d="M330.883 128.25V186.442L295.959 264.832H60.7276M268.195 1.17529H39.3241L1.45117 78.6865V124.907" stroke="url(#paint0_linear_1098_2899)"/>

<path d="M1 235.652L28.0259 265.604H1V235.652Z" fill="url(#paint1_linear_1098_2899)" fill-opacity="0.3"/>


<path d="M331 30.9513L303.974 1.0001H331V30.9513Z" fill="url(#paint2_linear_1098_2899)" fill-opacity="0.3"/>


<path d="M43.3746 8.17328H323.973V185.51L291.213 258.157H7.76562V80.6163L43.3746 8.17328Z" fill="url(#paint3_linear_1098_2899)" fill-opacity="0.15"/>
<path d="M8.26562 80.7325L43.686 8.67328H323.473V185.402L290.89 257.657H8.26562V80.7325Z" stroke="url(#paint4_linear_1098_2899)"/>

<defs>
<filter id="filter0_b_1098_2899" x="-45.3291" y="189.323" width="119.684" height="122.609" filterUnits="userSpaceOnUse" color-interpolation-filters="sRGB">
<feFlood flood-opacity="0" result="BackgroundImageFix"/>
<feGaussianBlur in="BackgroundImage" stdDeviation="23.1646"/>
<feComposite in2="SourceAlpha" operator="in" result="effect1_backgroundBlur_1098_2899"/>
<feBlend mode="normal" in="SourceGraphic" in2="effect1_backgroundBlur_1098_2899" result="shape"/>
</filter>
<filter id="filter1_b_1098_2899" x="257.645" y="-45.329" width="119.684" height="122.609" filterUnits="userSpaceOnUse" color-interpolation-filters="sRGB">
<feFlood flood-opacity="0" result="BackgroundImageFix"/>
<feGaussianBlur in="BackgroundImage" stdDeviation="23.1646"/>
<feComposite in2="SourceAlpha" operator="in" result="effect1_backgroundBlur_1098_2899"/>
<feBlend mode="normal" in="SourceGraphic" in2="effect1_backgroundBlur_1098_2899" result="shape"/>
</filter>
<filter id="filter2_b_1098_2899" x="-38.5635" y="-38.1558" width="408.865" height="342.642" filterUnits="userSpaceOnUse" color-interpolation-filters="sRGB">
<feFlood flood-opacity="0" result="BackgroundImageFix"/>
<feGaussianBlur in="BackgroundImage" stdDeviation="23.1646"/>
<feComposite in2="SourceAlpha" operator="in" result="effect1_backgroundBlur_1098_2899"/>
<feBlend mode="normal" in="SourceGraphic" in2="effect1_backgroundBlur_1098_2899" result="shape"/>
</filter>
<linearGradient id="paint0_linear_1098_2899" x1="1.45117" y1="133.004" x2="330.883" y2="133.004" gradientUnits="userSpaceOnUse">
<stop stop-color="#82F7CE"/>
<stop offset="0.49248" stop-color="#4630C7"/>
<stop offset="1" stop-color="#D750EC"/>
</linearGradient>
<linearGradient id="paint1_linear_1098_2899" x1="14.5129" y1="235.652" x2="14.5129" y2="265.604" gradientUnits="userSpaceOnUse">
<stop stop-color="#11D9EB"/>
<stop offset="1" stop-color="#11D9EB" stop-opacity="0.3"/>
</linearGradient>
<linearGradient id="paint2_linear_1098_2899" x1="317.487" y1="30.9513" x2="317.487" y2="1.0001" gradientUnits="userSpaceOnUse">
<stop stop-color="#11D9EB"/>
<stop offset="1" stop-color="#11D9EB" stop-opacity="0.3"/>
</linearGradient>
<linearGradient id="paint3_linear_1098_2899" x1="59.1805" y1="31.6652" x2="291.512" y2="163.549" gradientUnits="userSpaceOnUse">
<stop stop-color="#11D9EB"/>
<stop offset="1" stop-color="#5670FD"/>
</linearGradient>
<linearGradient id="paint4_linear_1098_2899" x1="15.1447" y1="214.398" x2="320.373" y2="208.295" gradientUnits="userSpaceOnUse">
<stop stop-color="#E42BC8"/>
<stop offset="0.52934" stop-color="#5670FD"/>
<stop offset="1" stop-color="#1DCEF4"/>
</linearGradient>
</defs>
</svg>

<svg width="332" height="266" fill="none" xmlns="http://www.w3.org/2000/svg"><path d="M330.883 128.25v58.192l-34.924 78.39H60.728M268.195 1.175H39.325L1.45 78.686v46.221" stroke="url(#a)"/><path d="m1 235.652 27.026 29.952H1v-29.952z" fill="url(#b)" fill-opacity=".3"/><path d="m331 30.951-27.026-29.95H331v29.95z" fill="url(#c)" fill-opacity=".3"/><path d="M43.375 8.173h280.598V185.51l-32.76 72.647H7.766V80.617L43.375 8.172z" fill="url(#d)" fill-opacity=".15"/><path d="m8.266 80.733 35.42-72.06h279.787v176.729l-32.583 72.255H8.266V80.733z" stroke="url(#e)"/><defs><linearGradient id="a" x1="1.451" y1="133.004" x2="330.883" y2="133.004" gradientUnits="userSpaceOnUse"><stop stop-color="#82F7CE"/><stop offset=".492" stop-color="#4630C7"/><stop offset="1" stop-color="#D750EC"/></linearGradient><linearGradient id="b" x1="14.513" y1="235.652" x2="14.513" y2="265.604" gradientUnits="userSpaceOnUse"><stop stop-color="#11D9EB"/><stop offset="1" stop-color="#11D9EB" stop-opacity=".3"/></linearGradient><linearGradient id="c" x1="317.487" y1="30.951" x2="317.487" y2="1" gradientUnits="userSpaceOnUse"><stop stop-color="#11D9EB"/><stop offset="1" stop-color="#11D9EB" stop-opacity=".3"/></linearGradient><linearGradient id="d" x1="59.181" y1="31.665" x2="291.512" y2="163.549" gradientUnits="userSpaceOnUse"><stop stop-color="#11D9EB"/><stop offset="1" stop-color="#5670FD"/></linearGradient><linearGradient id="e" x1="15.145" y1="214.398" x2="320.373" y2="208.295" gradientUnits="userSpaceOnUse"><stop stop-color="#E42BC8"/><stop offset=".529" stop-color="#5670FD"/><stop offset="1" stop-color="#1DCEF4"/></linearGradient></defs></svg>
